public/flags/HK.svg

<svg fill="none" height="53" viewBox="0 0 61 53" width="61" xmlns="http://www.w3.org/2000/svg" xmlns:xlink="http://www.w3.org/1999/xlink"><mask id="a" height="43" maskUnits="userSpaceOnUse" width="59" x="1" y="3"><rect fill="#fff" height="42.5" rx="4.24286" width="59" x="1" y="3"/></mask><rect fill="#fff" height="42.5" rx="4.24286" width="59" x="1" y="3"/><g clip-rule="evenodd" fill-rule="evenodd" mask="url(#a)"><path d="m1 45.5h59v-42.5h-59z" fill="#f0371d"/><path d="m30.4663 20.3096c2.0288-1.7125 2.1522-2.0954 2.6383-3.6042.1622-.5036.0478-.9172-.0874-1.4057-.1948-.7043-.4328-1.5643.0537-3.074-2.2136-.7254-4.7855 1.0995-5.7445 4.0759-.9589 2.9765.0581 5.9774 2.2717 6.7027.3963.1298.3518.036.2315-.2183-.211-.446-.6556-1.3856.6367-2.4764zm-4.2014 3.1278c-.9881-2.475-1.3111-2.7117-2.5837-3.6442-.4248-.3112-.8502-.3293-1.3527-.3506-.7244-.0307-1.609-.0683-2.8825-1.0014-1.368 1.899-.4418 4.9296 2.0688 6.7691 2.5107 1.8396 5.655 1.7914 7.023-.1075.2449-.3399.1427-.3263-.1342-.2895-.4859.0646-1.5094.2006-2.1387-1.3759zm12.6637 1.352c-1.5731 0-1.9724 0-4.2143-1.4167-1.428-.9023-2.1768-.1856-2.5322.1547-.2025.1939-.2774.2655-.2774-.1547 0-2.3472 2.5158-4.25 5.6191-4.25s5.619 1.9028 5.619 4.25c-1.5741 0-2.3116.494-2.9156.8985-.4189.2806-.7736.5182-1.2986.5182zm0-2.6644c0 .3912-.3145.7083-.7024.7083s-.7024-.3171-.7024-.7083.3145-.7083.7024-.7083.7024.3171.7024.7083zm-5.7903 6.2686c-.6432 2.5881-.5198 2.971-.0337 4.4798.1622.5036.4959.7704.8899 1.0854.5682.4543 1.2619 1.009 1.7484 2.5188 2.2135-.7253 3.2306-3.7262 2.2716-6.7026-.959-2.9765-3.5308-4.8014-5.7444-4.076-.3963.1298-.3056.1794-.0601.3138.4307.2357 1.338.7323.9283 2.3808zm2.479 3.6564c-.369.1209-.7652-.0827-.8851-.4548-.1199-.372.082-.7716.451-.8925.3689-.1209.7651.0827.885.4548.1199.372-.082.7716-.4509.8925zm-7.701-3.6164c-2.6394.1828-2.9625.4195-4.2351 1.352-.4248.3112-.5733.7137-.7486 1.189-.2529.6853-.5616 1.5221-1.8351 2.4552 1.368 1.8989 4.5123 1.947 7.023.1075 2.5106-1.8395 3.4368-4.8702 2.0688-6.7691-.2449-.3399-.2637-.2377-.3146.0393-.0892.486-.2772 1.5096-1.9584 1.6261zm-2.6822 3.5075c-.228-.3165-.1584-.7594.1554-.9894.3138-.2299.7531-.1598.9811.1567s.1584.7595-.1554.9894c-.3138.23-.7531.1598-.9811-.1567zm-3.1059-9.9923c.228-.3165.6673-.3867.9811-.1567.3138.2299.3834.6729.1554.9894-.228.3164-.6673.3866-.9811.1567-.3138-.23-.3834-.6729-.1554-.9894zm8.4637-6.0667c.3689.1209.5708.5205.451.8925-.1199.3721-.5162.5757-.8851.4548s-.5708-.5205-.451-.8925c.1199-.3721.5162-.5757.8851-.4548z" fill="#fff"/></g></svg>

<svg width="61" height="53" viewBox="0 0 61 53" fill="none" xmlns="http://www.w3.org/2000/svg">
<rect x="1" y="3" width="59" height="42.5" rx="4.24286" fill="white"/>
<mask id="mask0" mask-type="alpha" maskUnits="userSpaceOnUse" x="1" y="3" width="59" height="43">
<rect x="1" y="3" width="59" height="42.5" rx="4.24286" fill="white"/>
</mask>
<g mask="url(#mask0)">
<path fill-rule="evenodd" clip-rule="evenodd" d="M1 45.5H60V3H1V45.5Z" fill="#F0371D"/>
<path fill-rule="evenodd" clip-rule="evenodd" d="M30.4663 20.3096C32.4951 18.5971 32.6185 18.2142 33.1046 16.7054C33.2668 16.2018 33.1524 15.7882 33.0172 15.2997C32.8224 14.5954 32.5844 13.7354 33.0709 12.2257C30.8573 11.5003 28.2854 13.3252 27.3264 16.3016C26.3675 19.2781 27.3845 22.279 29.5981 23.0043C29.9944 23.1341 29.9499 23.0403 29.8296 22.786C29.6186 22.34 29.174 21.4004 30.4663 20.3096ZM26.2649 23.4374C25.2768 20.9624 24.9538 20.7257 23.6812 19.7932C23.2564 19.482 22.831 19.4639 22.3285 19.4426C21.6041 19.4119 20.7195 19.3743 19.446 18.4412C18.078 20.3402 19.0042 23.3708 21.5148 25.2103C24.0255 27.0499 27.1698 27.0017 28.5378 25.1028C28.7827 24.7629 28.6805 24.7765 28.4036 24.8133C27.9177 24.8779 26.8942 25.0139 26.2649 23.4374ZM38.9286 24.7894C37.3555 24.7894 36.9562 24.7894 34.7143 23.3727C33.2863 22.4704 32.5375 23.1871 32.1821 23.5274C31.9796 23.7213 31.9047 23.7929 31.9047 23.3727C31.9047 21.0255 34.4205 19.1227 37.5238 19.1227C40.6271 19.1227 43.1428 21.0255 43.1428 23.3727C41.5687 23.3727 40.8312 23.8667 40.2272 24.2712C39.8083 24.5518 39.4536 24.7894 38.9286 24.7894ZM38.9286 22.125C38.9286 22.5162 38.6141 22.8333 38.2262 22.8333C37.8383 22.8333 37.5238 22.5162 37.5238 22.125C37.5238 21.7338 37.8383 21.4167 38.2262 21.4167C38.6141 21.4167 38.9286 21.7338 38.9286 22.125ZM33.1383 28.3936C32.4951 30.9817 32.6185 31.3646 33.1046 32.8734C33.2668 33.377 33.6005 33.6438 33.9945 33.9588C34.5627 34.4131 35.2564 34.9678 35.7429 36.4776C37.9564 35.7523 38.9735 32.7514 38.0145 29.775C37.0555 26.7985 34.4837 24.9736 32.2701 25.699C31.8738 25.8288 31.9645 25.8784 32.21 26.0128C32.6407 26.2485 33.548 26.7451 33.1383 28.3936ZM35.6173 32.05C35.2483 32.1709 34.8521 31.9673 34.7322 31.5952C34.6123 31.2232 34.8142 30.8236 35.1832 30.7027C35.5521 30.5818 35.9483 30.7854 36.0682 31.1575C36.1881 31.5295 35.9862 31.9291 35.6173 32.05ZM27.9163 28.4336C25.2769 28.6164 24.9538 28.8531 23.6812 29.7856C23.2564 30.0968 23.1079 30.4993 22.9326 30.9746C22.6797 31.6599 22.371 32.4967 21.0975 33.4298C22.4655 35.3287 25.6098 35.3768 28.1205 33.5373C30.6311 31.6978 31.5573 28.6671 30.1893 26.7682C29.9444 26.4283 29.9256 26.5305 29.8747 26.8075C29.7855 27.2935 29.5975 28.3171 27.9163 28.4336ZM25.2341 31.9411C25.0061 31.6246 25.0757 31.1817 25.3895 30.9517C25.7033 30.7218 26.1426 30.7919 26.3706 31.1084C26.5986 31.4249 26.529 31.8679 26.2152 32.0978C25.9014 32.3278 25.4621 32.2576 25.2341 31.9411ZM22.1282 21.9488C22.3562 21.6323 22.7955 21.5621 23.1093 21.7921C23.4231 22.022 23.4927 22.465 23.2647 22.7815C23.0367 23.0979 22.5974 23.1681 22.2836 22.9382C21.9698 22.7082 21.9002 22.2653 22.1282 21.9488ZM30.5919 15.8821C30.9608 16.003 31.1627 16.4026 31.0429 16.7746C30.923 17.1467 30.5267 17.3503 30.1578 17.2294C29.7889 17.1085 29.587 16.7089 29.7068 16.3369C29.8267 15.9648 30.223 15.7612 30.5919 15.8821Z" fill="white"/>
</g>
</svg>
